packages/foundations/assets/icons/functional/images/notification/information_circle_24_filled.svg

<svg width="24" height="24" viewBox="0 0 24 24" fill="none" xmlns="http://www.w3.org/2000/svg">
<g clip-path="url(#clip0_2214_8090)">
<path fill-rule="evenodd" clip-rule="evenodd" d="M12 2C17.5312 2 22 6.4688 22 12C22 17.5312 17.5312 22 12 22C6.46875 22 2 17.5312 2 12C2 6.4688 6.46875 2 12 2ZM12 10H10.0625C9.5 10 9.0625 10.4688 9.0625 11C9.0625 11.5312 9.5 12 10.0625 12H11V15H10C9.46875 15 9 15.4375 9 16C9 16.5312 9.46875 17 10 17H14.0312C14.5625 17 15 16.5312 15 16C15 15.4688 14.5625 15 14.0312 15H13V11C13 10.4375 12.5938 10 12 10ZM12 6C11.3125 6 10.75 6.5312 10.75 7.2188C10.75 7.9375 11.3125 8.4688 12 8.4688C12.6875 8.4688 13.25 7.9375 13.25 7.2188C13.25 6.5312 12.6875 6 12 6Z" fill="#1A1C1F"/>
</g>
<defs>
<clipPath id="clip0_2214_8090">
<rect width="24" height="24" fill="white"/>
</clipPath>
</defs>
</svg>

<svg xmlns="http://www.w3.org/2000/svg" width="24" height="24" fill="none"><g clip-path="url(#a)"><path fill="#1A1C1F" fill-rule="evenodd" d="M12 2a9.99 9.99 0 0 1 10 10 9.99 9.99 0 0 1-10 10A9.99 9.99 0 0 1 2 12 9.99 9.99 0 0 1 12 2m0 8h-1.937c-.563 0-1 .469-1 1s.437 1 1 1H11v3h-1c-.531 0-1 .438-1 1 0 .531.469 1 1 1h4.031c.531 0 .969-.469.969-1s-.437-1-.969-1H13v-4c0-.562-.406-1-1-1m0-4c-.687 0-1.25.531-1.25 1.219 0 .718.563 1.25 1.25 1.25s1.25-.531 1.25-1.25C13.25 6.53 12.688 6 12 6" clip-rule="evenodd"/></g><defs><clipPath id="a"><path fill="#fff" d="M0 0h24v24H0z"/></clipPath></defs></svg>
